X:1503
T:Aberdaugleddau 2
R:Jig
C:Trad.
O:Wales
Z:Paul Hardy's Possible Tunebook 2022 (see www.paulhardy.net). Creative Commons cc by-nc-sa licenced.
M:6/8
L:1/8
Q:3/8=100
K:G
"G"GAB "Bm"B2 A | "G"G3 D3 | Bcd "D7"d2 c | "G"B3 G3 | g2 f g2 d | "C"e2 f "G"g2 B | "Am"c2 B A2 G | "D7"A3 D3 |
"G"GAB "Bm"B2 A | "G"G3 D3 | Bcd "D7"d2 c | "G"B3 G3 | g2 f g2 d | "C"e2 f g2  c | "G"B3 "D7"A3 | "G"G6 ||
"G"G2 B d2 B | "D7"AFD DEF | "G"G2 B d2 B | "D7"A3 D3 | "G"G2 B d2 B | "C"e2 c B2 A | "G"Bcd "D7"DEF |"G"G3 G3 |
"G"GAB d2 B | "D7"AFD DEF | "G"G2 B d2 B | "D7"A3 D3 | "G"G2 B d2 B | "C"e2 c B2 A | "G"Bcd "D7"def | "G"g3 g3 |]

